images/47263.svg

<?xml version="1.0" encoding="UTF-8"?>
<svg xmlns="http://www.w3.org/2000/svg" xmlns:xlink="http://www.w3.org/1999/xlink" width="300pt" height="300pt" viewBox="0 0 300 300" version="1.1">
<defs>
<g>
<symbol overflow="visible" id="glyph0-0">
<path style="stroke:none;" d="M 0.453125 1.59375 L 0.453125 -6.34375 L 4.953125 -6.34375 L 4.953125 1.59375 Z M 0.953125 1.09375 L 4.453125 1.09375 L 4.453125 -5.84375 L 0.953125 -5.84375 Z M 0.953125 1.09375 "/>
</symbol>
<symbol overflow="visible" id="glyph0-1">
<path style="stroke:none;" d="M 3.546875 -5.953125 C 2.898438 -5.953125 2.382812 -5.710938 2 -5.234375 C 1.625 -4.753906 1.4375 -4.101562 1.4375 -3.28125 C 1.4375 -2.445312 1.625 -1.789062 2 -1.3125 C 2.382812 -0.832031 2.898438 -0.59375 3.546875 -0.59375 C 4.191406 -0.59375 4.703125 -0.832031 5.078125 -1.3125 C 5.453125 -1.789062 5.640625 -2.445312 5.640625 -3.28125 C 5.640625 -4.101562 5.453125 -4.753906 5.078125 -5.234375 C 4.703125 -5.710938 4.191406 -5.953125 3.546875 -5.953125 Z M 3.546875 -6.6875 C 4.460938 -6.6875 5.195312 -6.375 5.75 -5.75 C 6.300781 -5.132812 6.578125 -4.3125 6.578125 -3.28125 C 6.578125 -2.238281 6.300781 -1.410156 5.75 -0.796875 C 5.195312 -0.179688 4.460938 0.125 3.546875 0.125 C 2.617188 0.125 1.878906 -0.179688 1.328125 -0.796875 C 0.773438 -1.410156 0.5 -2.238281 0.5 -3.28125 C 0.5 -4.3125 0.773438 -5.132812 1.328125 -5.75 C 1.878906 -6.375 2.617188 -6.6875 3.546875 -6.6875 Z M 3.546875 -6.6875 "/>
</symbol>
<symbol overflow="visible" id="glyph0-2">
<path style="stroke:none;" d="M 0.890625 -6.5625 L 2.078125 -6.5625 L 4.984375 -1.078125 L 4.984375 -6.5625 L 5.84375 -6.5625 L 5.84375 0 L 4.65625 0 L 1.75 -5.484375 L 1.75 0 L 0.890625 0 Z M 0.890625 -6.5625 "/>
</symbol>
<symbol overflow="visible" id="glyph0-3">
<path style="stroke:none;" d="M 0.890625 -6.5625 L 1.765625 -6.5625 L 1.765625 -3.875 L 5 -3.875 L 5 -6.5625 L 5.890625 -6.5625 L 5.890625 0 L 5 0 L 5 -3.125 L 1.765625 -3.125 L 1.765625 0 L 0.890625 0 Z M 0.890625 -6.5625 "/>
</symbol>
</g>
</defs>
<g id="surface26829">
<rect x="0" y="0" width="300" height="300" style="fill:rgb(100%,100%,100%);fill-opacity:1;stroke:none;"/>
<path style="fill:none;stroke-width:1.2;stroke-linecap:butt;stroke-linejoin:miter;stroke:rgb(100%,0%,0%);stroke-opacity:1;stroke-miterlimit:10;" d="M 100.660156 188.933594 L 101.894531 179.636719 "/>
<path style="fill:none;stroke-width:1.2;stroke-linecap:butt;stroke-linejoin:miter;stroke:rgb(0%,0%,0%);stroke-opacity:1;stroke-miterlimit:10;" d="M 101.894531 179.636719 L 103.125 170.335938 "/>
<path style="fill:none;stroke-width:1.2;stroke-linecap:butt;stroke-linejoin:miter;stroke:rgb(100%,0%,0%);stroke-opacity:1;stroke-miterlimit:10;" d="M 96.285156 188.355469 L 97.515625 179.054688 "/>
<path style="fill:none;stroke-width:1.2;stroke-linecap:butt;stroke-linejoin:miter;stroke:rgb(0%,0%,0%);stroke-opacity:1;stroke-miterlimit:10;" d="M 97.515625 179.054688 L 98.75 169.757812 "/>
<path style=" stroke:none;fill-rule:nonzero;fill:rgb(100%,100%,100%);fill-opacity:1;" d="M 94.472656 183.144531 L 102.472656 183.144531 L 102.472656 194.144531 L 94.472656 194.144531 Z M 94.472656 183.144531 "/>
<g style="fill:rgb(100%,0%,0%);fill-opacity:1;">
  <use xlink:href="#glyph0-1" x="94.472656" y="191.807617"/>
</g>
<path style="fill:none;stroke-width:1.2;stroke-linecap:butt;stroke-linejoin:miter;stroke:rgb(0%,0%,0%);stroke-opacity:1;stroke-miterlimit:10;" d="M 100.9375 170.046875 L 93.5 164.328125 "/>
<path style="fill:none;stroke-width:1.2;stroke-linecap:butt;stroke-linejoin:miter;stroke:rgb(0%,0%,100%);stroke-opacity:1;stroke-miterlimit:10;" d="M 93.5 164.328125 L 86.0625 158.613281 "/>
<path style="fill:none;stroke-width:1.2;stroke-linecap:butt;stroke-linejoin:miter;stroke:rgb(0%,0%,0%);stroke-opacity:1;stroke-miterlimit:10;" d="M 100.9375 170.046875 L 118.277344 162.882812 "/>
<path style="fill:none;stroke-width:1.2;stroke-linecap:butt;stroke-linejoin:miter;stroke:rgb(0%,0%,100%);stroke-opacity:1;stroke-miterlimit:10;" d="M 86.0625 158.613281 L 77.394531 162.195312 "/>
<path style="fill:none;stroke-width:1.2;stroke-linecap:butt;stroke-linejoin:miter;stroke:rgb(0%,0%,0%);stroke-opacity:1;stroke-miterlimit:10;" d="M 77.394531 162.195312 L 68.722656 165.777344 "/>
<path style=" stroke:none;fill-rule:nonzero;fill:rgb(100%,100%,100%);fill-opacity:1;" d="M 79.0625 153.113281 L 93.0625 153.113281 L 93.0625 164.113281 L 79.0625 164.113281 Z M 79.0625 153.113281 "/>
<g style="fill:rgb(0%,0%,100%);fill-opacity:1;">
  <use xlink:href="#glyph0-2" x="79.0625" y="161.776367"/>
  <use xlink:href="#glyph0-3" x="86.040039" y="161.776367"/>
</g>
<path style="fill:none;stroke-width:1.2;stroke-linecap:butt;stroke-linejoin:miter;stroke:rgb(0%,0%,0%);stroke-opacity:1;stroke-miterlimit:10;" d="M 68.722656 165.777344 L 53.847656 154.339844 "/>
<path style="fill:none;stroke-width:1.2;stroke-linecap:butt;stroke-linejoin:miter;stroke:rgb(0%,0%,0%);stroke-opacity:1;stroke-miterlimit:10;" d="M 53.847656 154.339844 L 35.25 151.875 "/>
<path style="fill:none;stroke-width:1.2;stroke-linecap:butt;stroke-linejoin:miter;stroke:rgb(0%,0%,0%);stroke-opacity:1;stroke-miterlimit:10;" d="M 46.683594 137 L 53.847656 154.339844 "/>
<path style="fill:none;stroke-width:1.2;stroke-linecap:butt;stroke-linejoin:miter;stroke:rgb(0%,0%,0%);stroke-opacity:1;stroke-miterlimit:10;" d="M 35.25 151.875 L 46.683594 137 "/>
<path style="fill:none;stroke-width:1.2;stroke-linecap:butt;stroke-linejoin:miter;stroke:rgb(0%,0%,0%);stroke-opacity:1;stroke-miterlimit:10;" d="M 118.277344 162.882812 L 133.152344 174.316406 "/>
<path style="fill:none;stroke-width:1.2;stroke-linecap:butt;stroke-linejoin:miter;stroke:rgb(0%,0%,0%);stroke-opacity:1;stroke-miterlimit:10;" d="M 122.457031 160.523438 L 134.355469 169.671875 "/>
<path style="fill:none;stroke-width:1.2;stroke-linecap:butt;stroke-linejoin:miter;stroke:rgb(0%,0%,0%);stroke-opacity:1;stroke-miterlimit:10;" d="M 120.742188 144.28125 L 118.277344 162.882812 "/>
<path style="fill:none;stroke-width:1.2;stroke-linecap:butt;stroke-linejoin:miter;stroke:rgb(0%,0%,0%);stroke-opacity:1;stroke-miterlimit:10;" d="M 133.152344 174.316406 L 150.492188 167.152344 "/>
<path style="fill:none;stroke-width:1.2;stroke-linecap:butt;stroke-linejoin:miter;stroke:rgb(0%,0%,0%);stroke-opacity:1;stroke-miterlimit:10;" d="M 150.492188 167.152344 L 152.957031 148.554688 "/>
<path style="fill:none;stroke-width:1.2;stroke-linecap:butt;stroke-linejoin:miter;stroke:rgb(0%,0%,0%);stroke-opacity:1;stroke-miterlimit:10;" d="M 146.363281 164.710938 L 148.335938 149.832031 "/>
<path style="fill:none;stroke-width:1.2;stroke-linecap:butt;stroke-linejoin:miter;stroke:rgb(0%,0%,0%);stroke-opacity:1;stroke-miterlimit:10;" d="M 152.957031 148.554688 L 138.085938 137.117188 "/>
<path style="fill:none;stroke-width:1.2;stroke-linecap:butt;stroke-linejoin:miter;stroke:rgb(0%,0%,0%);stroke-opacity:1;stroke-miterlimit:10;" d="M 152.957031 148.554688 L 170.296875 141.386719 "/>
<path style="fill:none;stroke-width:1.2;stroke-linecap:butt;stroke-linejoin:miter;stroke:rgb(0%,0%,0%);stroke-opacity:1;stroke-miterlimit:10;" d="M 138.085938 137.117188 L 120.742188 144.28125 "/>
<path style="fill:none;stroke-width:1.2;stroke-linecap:butt;stroke-linejoin:miter;stroke:rgb(0%,0%,0%);stroke-opacity:1;stroke-miterlimit:10;" d="M 138.035156 141.914062 L 124.164062 147.644531 "/>
<path style="fill:none;stroke-width:1.2;stroke-linecap:butt;stroke-linejoin:miter;stroke:rgb(0%,0%,0%);stroke-opacity:1;stroke-miterlimit:10;" d="M 170.296875 141.386719 L 185.171875 152.824219 "/>
<path style="fill:none;stroke-width:1.2;stroke-linecap:butt;stroke-linejoin:miter;stroke:rgb(0%,0%,0%);stroke-opacity:1;stroke-miterlimit:10;" d="M 174.476562 139.03125 L 186.375 148.179688 "/>
<path style="fill:none;stroke-width:1.2;stroke-linecap:butt;stroke-linejoin:miter;stroke:rgb(0%,0%,0%);stroke-opacity:1;stroke-miterlimit:10;" d="M 172.765625 122.789062 L 170.296875 141.386719 "/>
<path style="fill:none;stroke-width:1.2;stroke-linecap:butt;stroke-linejoin:miter;stroke:rgb(0%,0%,0%);stroke-opacity:1;stroke-miterlimit:10;" d="M 185.171875 152.824219 L 202.511719 145.660156 "/>
<path style="fill:none;stroke-width:1.2;stroke-linecap:butt;stroke-linejoin:miter;stroke:rgb(0%,0%,0%);stroke-opacity:1;stroke-miterlimit:10;" d="M 202.511719 145.660156 L 204.980469 127.058594 "/>
<path style="fill:none;stroke-width:1.2;stroke-linecap:butt;stroke-linejoin:miter;stroke:rgb(0%,0%,0%);stroke-opacity:1;stroke-miterlimit:10;" d="M 198.382812 143.21875 L 200.355469 128.339844 "/>
<path style="fill:none;stroke-width:1.2;stroke-linecap:butt;stroke-linejoin:miter;stroke:rgb(0%,0%,0%);stroke-opacity:1;stroke-miterlimit:10;" d="M 202.511719 145.660156 L 217.386719 157.09375 "/>
<path style="fill:none;stroke-width:1.2;stroke-linecap:butt;stroke-linejoin:miter;stroke:rgb(0%,0%,0%);stroke-opacity:1;stroke-miterlimit:10;" d="M 204.980469 127.058594 L 190.105469 115.625 "/>
<path style="fill:none;stroke-width:1.2;stroke-linecap:butt;stroke-linejoin:miter;stroke:rgb(0%,0%,0%);stroke-opacity:1;stroke-miterlimit:10;" d="M 190.105469 115.625 L 172.765625 122.789062 "/>
<path style="fill:none;stroke-width:1.2;stroke-linecap:butt;stroke-linejoin:miter;stroke:rgb(0%,0%,0%);stroke-opacity:1;stroke-miterlimit:10;" d="M 190.054688 120.421875 L 176.183594 126.152344 "/>
<path style="fill:none;stroke-width:1.2;stroke-linecap:butt;stroke-linejoin:miter;stroke:rgb(0%,0%,0%);stroke-opacity:1;stroke-miterlimit:10;" d="M 172.765625 122.789062 L 157.890625 111.355469 "/>
<path style="fill:none;stroke-width:1.2;stroke-linecap:butt;stroke-linejoin:miter;stroke:rgb(0%,0%,0%);stroke-opacity:1;stroke-miterlimit:10;" d="M 217.386719 157.09375 L 226.386719 154.4375 "/>
<path style="fill:none;stroke-width:1.2;stroke-linecap:butt;stroke-linejoin:miter;stroke:rgb(0%,0%,100%);stroke-opacity:1;stroke-miterlimit:10;" d="M 226.386719 154.4375 L 235.382812 151.78125 "/>
<path style="fill:none;stroke-width:1.2;stroke-linecap:butt;stroke-linejoin:miter;stroke:rgb(0%,0%,100%);stroke-opacity:1;stroke-miterlimit:10;" d="M 216.878906 175.847656 L 217.132812 166.472656 "/>
<path style="fill:none;stroke-width:1.2;stroke-linecap:butt;stroke-linejoin:miter;stroke:rgb(0%,0%,0%);stroke-opacity:1;stroke-miterlimit:10;" d="M 217.132812 166.472656 L 217.386719 157.09375 "/>
<path style="fill:none;stroke-width:1.2;stroke-linecap:butt;stroke-linejoin:miter;stroke:rgb(0%,0%,100%);stroke-opacity:1;stroke-miterlimit:10;" d="M 221.34375 174.09375 L 221.546875 166.589844 "/>
<path style="fill:none;stroke-width:1.2;stroke-linecap:butt;stroke-linejoin:miter;stroke:rgb(0%,0%,0%);stroke-opacity:1;stroke-miterlimit:10;" d="M 221.546875 166.589844 L 221.75 159.089844 "/>
<path style="fill:none;stroke-width:1.2;stroke-linecap:butt;stroke-linejoin:miter;stroke:rgb(0%,0%,100%);stroke-opacity:1;stroke-miterlimit:10;" d="M 235.382812 151.78125 L 240.6875 159.515625 "/>
<path style="fill:none;stroke-width:1.2;stroke-linecap:butt;stroke-linejoin:miter;stroke:rgb(0%,0%,0%);stroke-opacity:1;stroke-miterlimit:10;" d="M 240.6875 159.515625 L 245.996094 167.253906 "/>
<path style=" stroke:none;fill-rule:nonzero;fill:rgb(100%,100%,100%);fill-opacity:1;" d="M 228.382812 146.28125 L 242.382812 146.28125 L 242.382812 157.28125 L 228.382812 157.28125 Z M 228.382812 146.28125 "/>
<g style="fill:rgb(0%,0%,100%);fill-opacity:1;">
  <use xlink:href="#glyph0-2" x="228.382812" y="154.944336"/>
  <use xlink:href="#glyph0-3" x="235.360352" y="154.944336"/>
</g>
<path style="fill:none;stroke-width:1.2;stroke-linecap:butt;stroke-linejoin:miter;stroke:rgb(0%,0%,0%);stroke-opacity:1;stroke-miterlimit:10;" d="M 245.996094 167.253906 L 240.277344 174.691406 "/>
<path style="fill:none;stroke-width:1.2;stroke-linecap:butt;stroke-linejoin:miter;stroke:rgb(0%,0%,100%);stroke-opacity:1;stroke-miterlimit:10;" d="M 240.277344 174.691406 L 234.558594 182.128906 "/>
<path style="fill:none;stroke-width:1.2;stroke-linecap:butt;stroke-linejoin:miter;stroke:rgb(0%,0%,0%);stroke-opacity:1;stroke-miterlimit:10;" d="M 241.351562 166.050781 L 236.777344 172 "/>
<path style="fill:none;stroke-width:1.2;stroke-linecap:butt;stroke-linejoin:miter;stroke:rgb(0%,0%,100%);stroke-opacity:1;stroke-miterlimit:10;" d="M 236.777344 172 L 232.203125 177.949219 "/>
<path style="fill:none;stroke-width:1.2;stroke-linecap:butt;stroke-linejoin:miter;stroke:rgb(0%,0%,0%);stroke-opacity:1;stroke-miterlimit:10;" d="M 245.996094 167.253906 L 264.75 167.761719 "/>
<path style="fill:none;stroke-width:1.2;stroke-linecap:butt;stroke-linejoin:miter;stroke:rgb(0%,0%,100%);stroke-opacity:1;stroke-miterlimit:10;" d="M 234.558594 182.128906 L 216.878906 175.847656 "/>
<path style=" stroke:none;fill-rule:nonzero;fill:rgb(100%,100%,100%);fill-opacity:1;" d="M 231.558594 176.628906 L 238.558594 176.628906 L 238.558594 187.628906 L 231.558594 187.628906 Z M 231.558594 176.628906 "/>
<g style="fill:rgb(0%,0%,100%);fill-opacity:1;">
  <use xlink:href="#glyph0-2" x="231.558594" y="185.291992"/>
</g>
<path style=" stroke:none;fill-rule:nonzero;fill:rgb(100%,100%,100%);fill-opacity:1;" d="M 213.878906 170.347656 L 220.878906 170.347656 L 220.878906 181.347656 L 213.878906 181.347656 Z M 213.878906 170.347656 "/>
<g style="fill:rgb(0%,0%,100%);fill-opacity:1;">
  <use xlink:href="#glyph0-2" x="213.878906" y="179.010742"/>
</g>
</g>
</svg>

<svg xmlns="http://www.w3.org/2000/svg" xmlns:xlink="http://www.w3.org/1999/xlink" width="300pt" height="300pt" viewBox="0 0 300 300"><defs><symbol overflow="visible"><path d="M.453 1.594v-7.938h4.5v7.938zm.5-.5h3.5v-6.938h-3.5zm0 0"/></symbol><symbol overflow="visible" id="a"><path d="M3.547-5.953c-.65 0-1.164.242-1.547.72-.375.48-.563 1.13-.563 1.952 0 .835.188 1.49.563 1.967.383.48.898.72 1.547.72.644 0 1.156-.24 1.53-.72.376-.476.564-1.132.564-1.968 0-.822-.187-1.474-.562-1.954-.375-.477-.887-.72-1.53-.72zm0-.734c.914 0 1.648.312 2.203.937.55.617.828 1.438.828 2.47 0 1.042-.277 1.87-.828 2.483-.555.617-1.29.922-2.203.922-.93 0-1.668-.305-2.22-.922C.774-1.41.5-2.237.5-3.28c0-1.033.273-1.853.828-2.47.55-.625 1.29-.938 2.22-.938zm0 0"/></symbol><symbol overflow="visible" id="b"><path d="M.89-6.563H2.08l2.906 5.485v-5.484h.86V0H4.656L1.75-5.484V0H.89zm0 0"/></symbol><symbol overflow="visible" id="c"><path d="M.89-6.563h.876v2.688H5v-2.688h.89V0H5v-3.125H1.766V0H.89zm0 0"/></symbol></defs><g><path fill="#fff" d="M0 0h300v300H0z"/><path d="M100.66 188.934l1.235-9.297" stroke-width="1.2" stroke="#f00" stroke-miterlimit="10" fill="none"/><path d="M101.895 179.637l1.23-9.3" stroke-width="1.2" stroke="#000" stroke-miterlimit="10" fill="none"/><path d="M96.285 188.355l1.23-9.3" stroke-width="1.2" stroke="#f00" stroke-miterlimit="10" fill="none"/><path d="M97.516 179.055l1.234-9.297" stroke-width="1.2" stroke="#000" stroke-miterlimit="10" fill="none"/><path d="M94.473 183.145h8v11h-8zm0 0" fill="#fff"/><use xlink:href="#a" x="94.473" y="191.808" fill="#f00"/><path d="M100.938 170.047l-7.438-5.72" stroke-width="1.2" stroke="#000" stroke-miterlimit="10" fill="none"/><path d="M93.5 164.328l-7.438-5.715" stroke-width="1.2" stroke="#00f" stroke-miterlimit="10" fill="none"/><path d="M100.938 170.047l17.34-7.164" stroke-width="1.2" stroke="#000" stroke-miterlimit="10" fill="none"/><path d="M86.063 158.613l-8.668 3.582" stroke-width="1.2" stroke="#00f" stroke-miterlimit="10" fill="none"/><path d="M77.395 162.195l-8.672 3.582" stroke-width="1.2" stroke="#000" stroke-miterlimit="10" fill="none"/><path d="M79.063 153.113h14v11h-14zm0 0" fill="#fff"/><g fill="#00f"><use xlink:href="#b" x="79.063" y="161.776"/><use xlink:href="#c" x="86.04" y="161.776"/></g><path d="M68.723 165.777L53.848 154.34M53.848 154.34l-18.598-2.465M46.684 137l7.164 17.34M35.25 151.875L46.684 137M118.277 162.883l14.875 11.433M122.457 160.523l11.898 9.15M120.742 144.28l-2.465 18.603M133.152 174.316l17.34-7.164M150.492 167.152l2.465-18.597M146.363 164.71l1.973-14.878M152.957 148.555l-14.87-11.438M152.957 148.555l17.34-7.168M138.086 137.117l-17.344 7.164M138.035 141.914l-13.87 5.73M170.297 141.387l14.875 11.437M174.477 139.03l11.898 9.15M172.766 122.79l-2.47 18.597M185.172 152.824l17.34-7.164M202.512 145.66l2.468-18.6M198.383 143.22l1.972-14.88M202.512 145.66l14.875 11.434M204.98 127.06l-14.875-11.435M190.105 115.625l-17.34 7.164M190.055 120.422l-13.87 5.73M172.766 122.79l-14.875-11.435M217.387 157.094l9-2.656" stroke-width="1.2" stroke="#000" stroke-miterlimit="10" fill="none"/><path d="M226.387 154.438l8.996-2.657M216.88 175.848l.253-9.375" stroke-width="1.2" stroke="#00f" stroke-miterlimit="10" fill="none"/><path d="M217.133 166.473l.254-9.38" stroke-width="1.2" stroke="#000" stroke-miterlimit="10" fill="none"/><path d="M221.344 174.094l.203-7.504" stroke-width="1.2" stroke="#00f" stroke-miterlimit="10" fill="none"/><path d="M221.547 166.59l.203-7.5" stroke-width="1.2" stroke="#000" stroke-miterlimit="10" fill="none"/><path d="M235.383 151.78l5.304 7.736" stroke-width="1.2" stroke="#00f" stroke-miterlimit="10" fill="none"/><path d="M240.688 159.516l5.308 7.738" stroke-width="1.2" stroke="#000" stroke-miterlimit="10" fill="none"/><path d="M228.383 146.28h14v11h-14zm0 0" fill="#fff"/><g fill="#00f"><use xlink:href="#b" x="228.383" y="154.944"/><use xlink:href="#c" x="235.36" y="154.944"/></g><path d="M245.996 167.254l-5.72 7.437" stroke-width="1.2" stroke="#000" stroke-miterlimit="10" fill="none"/><path d="M240.277 174.69l-5.718 7.44" stroke-width="1.2" stroke="#00f" stroke-miterlimit="10" fill="none"/><path d="M241.352 166.05l-4.575 5.95" stroke-width="1.2" stroke="#000" stroke-miterlimit="10" fill="none"/><path d="M236.777 172l-4.574 5.95" stroke-width="1.2" stroke="#00f" stroke-miterlimit="10" fill="none"/><path d="M245.996 167.254l18.754.508" stroke-width="1.2" stroke="#000" stroke-miterlimit="10" fill="none"/><path d="M234.56 182.13l-17.68-6.282" stroke-width="1.2" stroke="#00f" stroke-miterlimit="10" fill="none"/><path d="M231.56 176.63h7v11h-7zm0 0" fill="#fff"/><use xlink:href="#b" x="231.559" y="185.292" fill="#00f"/><path d="M213.88 170.348h7v11h-7zm0 0" fill="#fff"/><use xlink:href="#b" x="213.879" y="179.011" fill="#00f"/></g></svg>
